#define im_width 256
#define im_height 64
static char im_bits[] = {
0x00,0x00,0x00,0x00,0x00,0x00,0x00,0x00,0x00,0x00,0x00,0x00,0x00,0x00,0x00,
0x00,0x00,0x00,0x00,0x00,0x00,0x00,0x00,0x00,0x00,0x00,0x00,0x00,0x00,0x00,
0x00,0x00,0x00,0x00,0x00,0x00,0x00,0x00,0x00,0x00,0x00,0x00,0x00,0x00,0x00,
0x00,0x00,0x00,0x00,0x00,0x00,0x00,0x00,0x00,0x00,0x00,0x00,0x00,0x00,0x00,
0x00,0x00,0x00,0x00,0x00,0x00,0x00,0x00,0x00,0x00,0x00,0x00,0x00,0x00,0x00,
0x00,0x00,0x00,0x00,0x00,0x00,0x00,0x00,0x00,0x00,0x00,0x00,0x00,0x00,0x00,
0x00,0x00,0x00,0x00,0x00,0x00,0x00,0x00,0x00,0x00,0x00,0x00,0x00,0x00,0x00,
0x00,0x00,0x00,0x00,0x00,0x00,0x00,0x00,0x00,0x00,0xa0,0x00,0x00,0x00,0x00,
0x00,0x00,0x00,0x00,0x00,0x00,0x00,0x00,0x00,0x00,0x00,0x00,0x00,0x00,0x00,
0x00,0x00,0x00,0x00,0x00,0x00,0x00,0x00,0x00,0x00,0x00,0x00,0xfe,0x0f,0x00,
0x00,0x00,0x00,0x00,0x00,0x00,0x00,0x00,0x00,0x00,0x00,0x00,0x00,0x00,0x00,
0x00,0x00,0x00,0x00,0x00,0x60,0x00,0x00,0x00,0x00,0x00,0x00,0x00,0xc0,0xff,
0x3f,0x00,0x00,0x00,0x00,0x00,0x00,0x00,0x00,0x00,0x00,0x00,0x00,0x00,0x00,
0x00,0x00,0x00,0x00,0x00,0x00,0x00,0x78,0x00,0x00,0x00,0x00,0x00,0x00,0x00,
0xf0,0xff,0x7f,0x00,0x00,0x00,0x00,0x00,0x00,0x00,0x00,0x00,0x00,0x00,0x00,
0x00,0x00,0x00,0x00,0x00,0x00,0x00,0x00,0x00,0x78,0x00,0x00,0x00,0x00,0x00,
0x00,0x00,0xfc,0x1f,0x00,0x00,0x00,0x00,0x00,0x00,0xc0,0xff,0x01,0x00,0x00,
0x00,0x00,0x00,0x00,0x00,0x00,0x00,0x00,0x00,0x00,0x00,0xf8,0x00,0x00,0x00,
0x00,0x00,0x00,0x80,0xff,0x0f,0x00,0x00,0x00,0x00,0x00,0x00,0xf0,0xff,0x0f,
0x00,0x00,0x00,0x00,0x00,0x00,0x00,0x00,0x00,0x00,0x00,0x00,0x00,0xf0,0x00,
0x00,0x00,0x00,0x00,0x00,0xe0,0xff,0x0f,0xff,0x00,0x00,0x00,0x00,0x00,0xfc,
0xff,0x1f,0x00,0x00,0x00,0x00,0x00,0x00,0x00,0x00,0x00,0x00,0x00,0x00,0x00,
0xf0,0x01,0x00,0x00,0x00,0x00,0x00,0xf8,0xff,0xcf,0xff,0x01,0x00,0x00,0x00,
0x00,0xfe,0xff,0x7f,0x00,0x00,0x00,0x00,0x00,0x00,0x00,0x00,0x00,0x00,0x00,
0x00,0x00,0xf0,0x01,0x00,0x00,0x00,0x00,0x00,0xfe,0xff,0xff,0xff,0x03,0x00,
0x00,0x00,0x00,0xff,0xff,0xff,0x00,0x00,0x00,0x00,0x00,0x00,0x00,0x00,0x00,
0x00,0x00,0x00,0x00,0xf0,0x01,0x00,0x00,0x00,0x00,0x80,0xff,0xff,0xff,0xff,
0x07,0x00,0x00,0x00,0x80,0xff,0xff,0xff,0x01,0x00,0x00,0x00,0x00,0x00,0x00,
0x00,0x00,0x00,0x00,0x00,0x00,0xf0,0x03,0x00,0x00,0x00,0x00,0xe0,0xf7,0xff,
0xff,0xff,0x07,0x00,0x00,0x00,0xc0,0xff,0xff,0xff,0x03,0x00,0x00,0x00,0x00,
0x00,0x00,0x00,0x00,0x00,0x00,0x00,0x00,0xf0,0x03,0x00,0x00,0x00,0x00,0xf8,
0x7f,0xff,0xff,0x07,0x07,0x00,0x00,0x00,0xe0,0xff,0xff,0xff,0x03,0x00,0x00,
0x00,0x00,0x00,0x00,0x00,0x00,0x00,0x00,0x00,0x00,0xf0,0x07,0x00,0x00,0x00,
0x00,0xfe,0xaf,0xff,0x1f,0x00,0x04,0x00,0x00,0x00,0xf0,0xff,0xff,0xff,0x07,
0x00,0x00,0x00,0x00,0x00,0x00,0x00,0x00,0x00,0x00,0x00,0x00,0xf0,0x07,0x00,
0x00,0x00,0x80,0xef,0xeb,0xff,0x01,0x00,0x04,0x00,0x00,0x00,0xf0,0xff,0xff,
0xff,0x0f,0x00,0x00,0x00,0x00,0x00,0x00,0x00,0x00,0x00,0x00,0x00,0x00,0xe0,
0x07,0x00,0x00,0x00,0xe0,0xff,0xfe,0x3f,0x00,0x00,0x06,0x00,0x00,0x00,0xf8,
0xff,0xff,0xff,0x0f,0x00,0x00,0x07,0x00,0x00,0x00,0x00,0x00,0x00,0x00,0x00,
0x00,0xe0,0x0f,0x00,0x00,0x00,0xf8,0x5f,0xff,0x07,0x00,0x00,0x06,0x00,0x00,
0x00,0xf8,0xff,0xff,0xff,0x1f,0x00,0x00,0x0f,0x1f,0x00,0x00,0x00,0x00,0x00,
0x00,0x00,0x00,0xe0,0x0f,0x00,0x00,0x00,0xfe,0xd7,0xff,0x09,0x00,0x00,0x03,
0x00,0x00,0x00,0xfc,0xff,0xff,0xff,0x1f,0x00,0x00,0xdf,0x7f,0x00,0x00,0x20,
0x00,0x00,0x00,0x00,0x00,0xe0,0x0f,0x00,0x00,0x80,0xff,0xf5,0x3f,0x00,0x00,
0x00,0x03,0x00,0x00,0xe0,0xff,0xff,0xff,0xff,0x3f,0x00,0x00,0xff,0xff,0x00,
0x00,0xf0,0x03,0x00,0x00,0x00,0x00,0xe0,0x1f,0x00,0x00,0xe0,0x7f,0xfd,0x0f,
0x00,0x00,0x80,0x03,0x00,0xf0,0xff,0xff,0xff,0xff,0xff,0x3f,0x00,0x00,0xff,
0xff,0x00,0x00,0x80,0xff,0x00,0x00,0x00,0x00,0xe0,0x1f,0x00,0x00,0xf8,0x5f,
0xff,0x03,0x00,0x00,0xc0,0x01,0x00,0xfc,0xff,0xff,0xff,0xff,0xff,0x3f,0x00,
0x00,0xff,0xff,0x01,0x00,0x00,0xf0,0x3f,0x00,0x00,0x00,0xe0,0x3f,0x00,0x00,
0xfe,0xd7,0xff,0x00,0x00,0x00,0xc0,0x00,0x00,0x00,0x00,0x00,0xf8,0xff,0xff,
0x7f,0x00,0x00,0xff,0xff,0x01,0x00,0x00,0x00,0xff,0x0f,0x00,0x00,0xe0,0x3f,
0x00,0x80,0xff,0xf2,0x1f,0x00,0x00,0x00,0xe0,0x00,0x00,0x00,0x00,0xf8,0xff,
0xff,0xff,0x7f,0x00,0x00,0x0f,0xff,0x0f,0x00,0x00,0x00,0xe0,0xff,0x03,0x00,
0xe0,0x3f,0x00,0xe0,0xff,0xfe,0x07,0x00,0x00,0x00,0x70,0x00,0x00,0x00,0x00,
0xff,0xff,0xff,0xff,0x7f,0x00,0x00,0x04,0xfe,0x1f,0x00,0x00,0x00,0x00,0xf8,
0xff,0x03,0xe0,0x7f,0x00,0xf8,0xbf,0xff,0x01,0x00,0x00,0x00,0x38,0x00,0x00,
0x00,0x00,0xff,0xff,0xff,0xff,0x7f,0x00,0x00,0x00,0xfc,0x3f,0x00,0x00,0x00,
0x00,0x00,0xff,0xff,0xc1,0x7f,0x00,0xfe,0xf7,0x7f,0x00,0x00,0x00,0x00,0x1e,
0x00,0x00,0x00,0x00,0xff,0xff,0xff,0xff,0xff,0x00,0x00,0x00,0xfc,0x3f,0x00,
0x00,0x00,0x00,0x00,0xc0,0xff,0xff,0xfe,0x80,0xff,0xfd,0x0f,0x00,0x00,0x00,
0x00,0x0f,0x00,0x00,0x00,0xff,0xff,0xff,0xff,0xff,0xff,0x00,0x00,0x00,0xfc,
0x3f,0x00,0x00,0x00,0x00,0x00,0x00,0xe0,0xff,0xff,0xff,0xff,0xff,0x03,0x00,
0x00,0x00,0x00,0x04,0x00,0xe0,0xff,0xff,0xff,0xff,0xff,0xff,0xff,0x00,0x00,
0x00,0xe0,0x7f,0x00,0x00,0x00,0x00,0x00,0x00,0x00,0xf0,0xff,0xff,0x7f,0xfc,
0x00,0x00,0x00,0x00,0x00,0x00,0xe0,0xff,0xff,0xff,0xff,0xff,0xff,0xff,0x3f,
0x00,0x00,0x00,0xc0,0x7f,0x00,0x00,0x00,0x00,0x00,0x00,0x00,0x00,0xe0,0xbf,
0x3f,0x18,0x70,0x00,0x00,0x00,0x40,0x05,0x00,0x80,0xff,0xff,0xdf,0xff,0xff,
0xff,0x03,0x00,0x00,0x00,0x80,0x7f,0x00,0x00,0x00,0x00,0x00,0x00,0x00,0x00,
0x00,0x00,0x1f,0xf0,0xf7,0x00,0x00,0x00,0x1c,0x01,0x00,0x00,0x00,0xf8,0x9f,
0xff,0xff,0x3f,0x00,0x00,0x00,0x00,0x80,0x3f,0x00,0x00,0x00,0x00,0x00,0x00,
0x00,0x00,0x00,0x00,0x1f,0xf0,0xf7,0x01,0x00,0x00,0x0f,0x01,0x00,0x00,0x00,
0x80,0x9f,0xff,0xff,0x00,0x00,0x00,0x00,0x00,0x00,0x3f,0x00,0x00,0x00,0x00,
0x40,0x00,0x00,0x00,0x00,0x80,0x0f,0xe0,0x1f,0x00,0x00,0xc0,0x83,0x00,0x00,
0x00,0x00,0xfc,0x9f,0xff,0x07,0x00,0x00,0x00,0x00,0x00,0x00,0xff,0x78,0x00,
0x00,0x00,0x00,0x00,0x00,0x00,0x00,0x80,0x0f,0x20,0x00,0x00,0x00,0xf0,0x80,
0x3f,0x00,0x00,0xc0,0xff,0x9f,0xff,0xff,0xff,0xff,0xff,0xff,0x00,0x00,0xff,
0xfc,0x01,0x00,0x00,0x00,0x00,0x00,0x00,0x00,0xc0,0x0b,0x20,0x00,0x00,0x00,
0xfc,0x9f,0x67,0x00,0x00,0x00,0xfe,0x1f,0xff,0xff,0xff,0xff,0xff,0x3f,0x00,
0x00,0xff,0xff,0x01,0x00,0x00,0x00,0x00,0x00,0x00,0x00,0xc0,0x8b,0x20,0x00,
0x00,0x80,0xff,0x1b,0xc2,0xff,0x0f,0x00,0xfc,0x0f,0xff,0xff,0xff,0xff,0x3f,
0x00,0x00,0x00,0xff,0xff,0x01,0x00,0x00,0xff,0x07,0x00,0xe0,0x03,0xc0,0x0b,
0x20,0x00,0x00,0xe0,0xfb,0x39,0x80,0xff,0xff,0xff,0x7f,0xc0,0xff,0xff,0xff,
0xff,0x00,0x00,0x00,0x00,0xff,0xff,0x03,0x00,0x00,0x00,0xff,0x3f,0xe1,0x0f,
0xc0,0x1b,0x20,0x00,0x00,0xf8,0x01,0x18,0x02,0xf9,0xff,0xff,0x00,0xf8,0xff,
0xff,0xff,0x7f,0x00,0x00,0x00,0x80,0xff,0xff,0x1f,0x00,0x00,0x00,0x00,0xff,
0xff,0x1f,0x80,0x10,0x30,0x00,0x08,0x8c,0x00,0x18,0x00,0x01,0x00,0x00,0x00,
0xff,0xff,0xff,0xff,0x7f,0x00,0x00,0x00,0x00,0xfe,0xe3,0xff,0x03,0x00,0x00,
0x00,0x80,0xff,0x0f,0x00,0x30,0x10,0x00,0x0c,0x00,0x00,0xbc,0x00,0x01,0x00,
0x00,0xe0,0xff,0xff,0xff,0xff,0x7f,0x00,0x00,0x00,0x00,0xfe,0x81,0xff,0x1f,
0x07,0x00,0x00,0x00,0x80,0x1f,0x00,0x60,0x08,0x00,0x07,0x00,0x00,0xbc,0x00,
0x01,0x00,0xc0,0xff,0xff,0xff,0xff,0xff,0x3f,0x00,0x00,0x00,0x00,0x1c,0x00,
0x3f,0xbe,0x17,0x00,0x00,0x00,0x80,0x07,0x00,0xc0,0x0f,0xc0,0x20,0x00,0x00,
0xbc,0x04,0x01,0x80,0xff,0xff,0xff,0xff,0xff,0xff,0x3f,0x00,0x00,0x00,0x00,
0x1c,0x00,0x3e,0xfc,0x3f,0x00,0x00,0x00,0xe0,0x03,0x00,0x00,0x03,0x30,0x00,
0x00,0x00,0xbc,0x00,0x8f,0xfd,0xff,0xff,0xff,0xff,0xff,0xff,0x3f,0x00,0x00,
0x00,0x00,0x00,0x00,0x3e,0xf0,0x7f,0x00,0x00,0x00,0xf8,0x00,0x40,0x00,0x00,
0x0c,0x60,0x00,0x00,0x8c,0x00,0xcf,0xff,0xff,0xff,0xff,0xff,0xff,0xff,0x1f,
0x00,0x40,0x00,0x00,0x00,0x00,0x3c,0xf8,0xff,0x00,0x00,0x00,0x78,0x00,0xc0,
0x78,0x00,0x03,0x1c,0x00,0x00,0x80,0x81,0xff,0xff,0xff,0xff,0xff,0xff,0xff,
0xff,0x1f,0x00,0xe0,0x00,0x00,0x00,0x00,0x3c,0xfc,0xff,0x00,0x00,0x00,0x20,
0x00,0x00,0x17,0x80,0x01,0x03,0x20,0x00,0x00,0x81,0xff,0xff,0xff,0xff,0xff,
0xff,0xff,0xc3,0x0f,0x00,0xf3,0x00,0x00,0x00,0x00,0xf8,0xfd,0xff,0x01,0x00,
0x00,0x00,0x00,0x00,0x00,0xe0,0x7f,0x00,0x00,0x36,0x00,0xc2,0xff,0xff,0xff,
0xff,0x0f,0xff,0xff,0x01,0x0f,0x80,0xff,0x00,0x00,0x00,0x00,0xf8,0x3f,0xfe,
0x0d,0x80,0x01,0x00,0x00,0x00,0x00,0x3c,0x00,0x00,0xf0,0x7f,0x00,0xbc,0xff,
0xff,0xff,0xff,0x03,0xfc,0xff,0x00,0x06,0xc0,0xc3,0x00,0x00,0x00,0x00,0xf0,
0x1f,0xf8,0x1f,0xc0,0x07,0x00,0x00,0x00,0xf2,0x0f,0x00,0xe0,0xf9,0xff,0x00,
0xc0,0xff,0xff,0xff,0xff,0x01,0xfc,0x7f,0x00,0x02,0xe0,0x81,0x00,0x00,0x00,
0x00,0xf0,0x0b,0xf0,0x3f,0xf0,0x2f,0x00,0x80,0xff,0xc0,0x00,0xc0,0xff,0xf9,
0xff,0x01,0xf0,0xff,0xff,0xff,0xff,0x01,0xf8,0x7f,0x00,0x1e,0xe0,0x00,0x00,
0x00,0x00,0x00,0xf8,0x00,0xe0,0x3f,0xf8,0x7f,0x00,0x00,0x40,0x00,0x00,0xe0,
0xff,0xf9,0xff,0x07,0xfc,0xff,0xff,0x87,0xff,0x01,0xc0,0x4f,0x00,0x30,0x60,
0x00,0x00,0x00,0x00,0x00,0xfc,0x00,0xe0,0x3f,0xfc,0x7f,0x00,0x00,0x00,0x04,
0x00,0x00,0x7e,0xf8,0xff,0xff,0xff,0xff,0xff,0x01,0x1f,0x00,0x80,0x07,0x00,
0x60,0x7c,0x00,0x00,0x00,0x00,0x00,0xfc,0x00,0xe0,0xff,0xff,0xff,0x0e,0x00,
0x00,0x80,0xfc,0xff,0x3f,0xe0,0xff,0xff,0xff,0xff,0xff,0x00,0x0e,0x00,0x80,
0x07,0x00,0xc0,0x7f,0x00,0x00,0x00,0x00,0x00,0xf0,0x00,0xe0,0xff,0xdf,0xff,
0x1f,0x00,0x00,0x44,0xc0,0xff,0x3f,0xc0,0xff,0xff,0xff,0xff,0xff,0x00,0x06,
0x00,0x80,0x01,0x00,0xc0,0x2f,0x00,0x00,0x00,0x00,0x00,0x10,0x00,0xe0,0xff,
0x82,0xff,0x3f,0x0c,0x00,0x44,0x00,0xff,0x3f,0xc0,0xff,0xff,0xff,0xff,0xff,
0x00,0x00,0x00,0x00,0x00,0x00,0xc0,0x07,0x00,0x00,0x00,0x00,0x00,0x00,0x00,
0xc0,0xff,0x00,0xff,0x3f,0x3f,0x00,0x22,0x00,0xfc,0x3f,0xc0,0xff,0xff,0xff,
0xff,0x1f,0x00,0x00,0x00,0x00,0x00,0x00,0x80,0x03,0x00,0x00,0x00,0x00,0x00,
0x00,0x00,0x80,0xf1,0x00,0xfc,0xff,0x7f,0x00,0x00,0x00,0xf8,0x3f,0xe0,0xff,
0xff,0xff,0x7f,0x0e,0x00,0x00,0x00,0x00,0x00,0x00,0x00,0x00,0x00,0x00,0x00,
0x00,0x00,0x00,0x00,0x00,0xe0,0x01,0xfc,0xff,0x7f,0x00,0x00,0x00,0xf0,0x3f,
0xe2,0xff,0xff,0xff,0x3f,0x00,0x00,0x00,0x00,0x00,0x00,0x00,0x00,0x00,0x00,
0x00,0x00,0x00,0x00,0x00,0x00,0x00,0x00,0x00,0x38,0xf8,0xfe,0x0e,0x00,0x00,
0x00,0xfc,0xff,0xff,0xff,0x1f,0x1e,0x00,0x00,0x00,0x00,0x00,0x00,0x00,0x00,
0x00,0x00,0x00,0x00,0x00,0x00,0x00,0x00,0x00,0x00,0x00,0x00,0x70,0xf8,0x1f,
0x00,0x00,0x00,0xf8,0xff,0xff,0xff,0x0f,0x00,0x00,0x00,0x00,0x00,0x00,0x00,
0x00,0x00,0x00,0x00,0x00,0x00,0x00,0x00,0x00,0x00,0x00,0x00,0x00,0x00,0x00,
0xf0,0x1f,0x00,0x00,0x00,0x80,0xff,0xff,0x7f,0x00,0x00,0x00,0x00,0x00,0x00,
0x00,0x00,0x00,0x00,0x00,0x00,0x00,0x00,0x00,0x00,0x00,0x00,0x00,0x00,0x00,
0x00,0x00,0xc0,0xff,0x00,0x00,0x00,0x00,0xfc,0xff,0x00,0x00,0x00,0x00,0x00,
0x00,0x00,0x00,0x00,0x00,0x00,0x00,0x00
};
