#define im_width 256
#define im_height 64
static char im_bits[] = {
0x00,0x00,0x00,0x00,0x00,0x00,0x00,0x00,0x00,0x00,0x00,0x00,0x00,0x00,0x00,
0x00,0x00,0x00,0x00,0x00,0x00,0x00,0x00,0x00,0x00,0x00,0x00,0x00,0x00,0x00,
0x00,0x00,0x00,0x00,0x00,0x00,0x00,0x00,0x00,0x00,0x00,0x00,0x00,0x00,0x00,
0x00,0x00,0x00,0x00,0x00,0x00,0x00,0x00,0x00,0x00,0x00,0x00,0x00,0x00,0x00,
0x00,0x00,0x00,0x00,0x00,0x00,0x00,0x00,0x00,0x00,0x00,0x00,0x00,0x00,0x00,
0x00,0x00,0x00,0x00,0x00,0x00,0x00,0x00,0xf8,0x03,0x00,0x00,0x00,0x00,0x00,
0x00,0x00,0x00,0x00,0x00,0x00,0x00,0x00,0x00,0x00,0x00,0x00,0x00,0x00,0x00,
0x00,0x00,0x00,0x00,0x00,0x00,0x00,0x00,0x00,0xc0,0x41,0x38,0x00,0x00,0x00,
0x00,0x00,0x00,0x00,0x00,0x00,0x00,0x00,0x00,0x00,0x00,0x00,0x00,0x00,0x00,
0x00,0x00,0x00,0x00,0x00,0x00,0x00,0x00,0x00,0x00,0x00,0x18,0x00,0x80,0x01,
0x00,0x00,0x00,0x00,0x00,0x00,0x00,0x00,0x00,0x00,0x00,0x00,0x00,0x00,0x00,
0x03,0x00,0x00,0x00,0x00,0x00,0x00,0x00,0x00,0x00,0x00,0x00,0x00,0x06,0x00,
0x00,0x06,0x00,0x00,0x00,0x00,0x00,0x00,0x00,0x00,0x00,0x00,0x00,0x00,0x00,
0x00,0x80,0x03,0x00,0x00,0x00,0x00,0x00,0x00,0x00,0x00,0x00,0x00,0x00,0x80,
0x01,0x00,0x00,0x18,0x00,0x00,0x00,0x00,0x00,0x00,0x00,0x00,0x00,0x00,0x00,
0x00,0x00,0x00,0xc0,0x03,0x00,0x00,0x00,0x00,0x00,0x00,0x00,0x00,0x00,0x00,
0x00,0x40,0x00,0x00,0x00,0x70,0x00,0x00,0x00,0x00,0x00,0x00,0x00,0x00,0x00,
0x00,0x00,0x00,0x00,0x00,0xc0,0x03,0x00,0x00,0x00,0x00,0x00,0x00,0x00,0x00,
0x00,0x00,0x00,0x30,0x00,0x00,0x00,0xf8,0x00,0x00,0x00,0x00,0x00,0x00,0x00,
0x00,0x00,0x00,0x00,0x00,0x00,0x00,0xf8,0x37,0x00,0x00,0x00,0xf0,0xff,0x3f,
0x00,0x00,0x00,0x00,0x00,0x08,0x00,0x40,0x00,0xf8,0x01,0x00,0x00,0x00,0x00,
0x00,0x00,0x00,0x00,0x00,0x00,0x00,0x00,0xff,0x00,0x06,0x03,0x00,0x80,0xff,
0xff,0xff,0x07,0x00,0x00,0x00,0x00,0x04,0x00,0x40,0x00,0xfc,0x03,0x00,0x00,
0x00,0x00,0x00,0x00,0x00,0x00,0x00,0x00,0x00,0x00,0xe0,0x1f,0x07,0xe0,0x00,
0xf0,0xff,0xff,0xff,0x3f,0x00,0x00,0x00,0x00,0x02,0x00,0x00,0x00,0xfe,0x07,
0x00,0x00,0x00,0x00,0x00,0x00,0x00,0x00,0x00,0x00,0x00,0x00,0x00,0x80,0x07,
0x00,0x00,0xf8,0xff,0xff,0xf8,0xff,0x01,0x00,0x00,0x00,0x01,0x00,0x00,0x00,
0xff,0x0f,0x00,0x00,0x00,0x00,0x00,0x00,0x00,0x00,0x00,0x00,0x00,0x00,0x00,
0x80,0x0f,0x00,0x00,0x0c,0x00,0x00,0x00,0xf8,0x03,0x00,0x00,0x00,0x00,0x00,
0x00,0x00,0xff,0x1f,0x00,0x00,0x00,0x00,0x00,0x00,0x00,0x00,0x00,0x00,0x00,
0x00,0x00,0xc0,0x0f,0x00,0x00,0x00,0x00,0x00,0x00,0x80,0x07,0x00,0x00,0x80,
0x00,0x00,0x00,0x00,0xff,0x3f,0x00,0x00,0x00,0x00,0x00,0x00,0x00,0x00,0x00,
0x00,0x00,0x00,0x00,0xc0,0x0f,0x00,0x00,0x00,0x00,0x00,0x00,0x00,0x0c,0x00,
0x00,0x40,0x00,0x00,0x00,0x80,0xff,0x3f,0x00,0x00,0x00,0x00,0x00,0x00,0x00,
0x00,0x00,0x00,0x00,0x00,0x00,0xc0,0x0f,0x00,0x00,0x80,0x07,0x00,0x02,0x00,
0x00,0x00,0x00,0x00,0x00,0x07,0x00,0x80,0xff,0x4f,0x00,0x00,0x00,0x00,0x00,
0x00,0x00,0x00,0x00,0x00,0x00,0x00,0x00,0xc0,0x0f,0x40,0x00,0x00,0xf8,0x01,
0x02,0x00,0x00,0x00,0x00,0x20,0x00,0x0f,0x40,0xc0,0xff,0x47,0x00,0x00,0x00,
0x00,0x00,0x00,0x00,0x00,0x00,0x00,0x00,0x00,0x00,0xc0,0x1f,0x18,0x00,0x00,
0x80,0x00,0x82,0x0f,0x00,0x00,0x00,0x00,0x80,0x0f,0x00,0xc0,0xff,0x81,0x00,
0x00,0x00,0x00,0x00,0x00,0x00,0x00,0x00,0x00,0x00,0x00,0x00,0xe0,0x1f,0x0e,
0x00,0x00,0x80,0x00,0x06,0x00,0x00,0x00,0x00,0x10,0x00,0x0f,0x00,0xf0,0xff,
0x00,0x00,0x00,0x00,0x00,0x00,0x00,0x00,0x00,0x00,0x0e,0x00,0x00,0x00,0xe0,
0x1f,0x1b,0x00,0x01,0x40,0x00,0x06,0x00,0x00,0x00,0x00,0x00,0x00,0x00,0x00,
0xf0,0x3f,0x01,0x01,0x00,0x00,0x00,0x00,0x00,0x00,0x00,0x00,0xfe,0x1f,0x00,
0x00,0xe0,0x1f,0x04,0x00,0x03,0x40,0x00,0x04,0x80,0x00,0x00,0x00,0x08,0x00,
0x00,0x00,0xf0,0x1f,0x00,0x01,0x00,0x00,0x00,0x00,0x00,0x00,0x00,0x00,0x00,
0xff,0x3f,0x00,0xe0,0x1f,0x00,0x80,0x02,0x60,0x00,0x1c,0x80,0x00,0x00,0x00,
0x08,0x00,0x00,0x00,0xf8,0x07,0x00,0x00,0x00,0x00,0x00,0x00,0x00,0x00,0x00,
0x00,0x1e,0x80,0xff,0x7f,0x00,0x1e,0x00,0x00,0x04,0x20,0x00,0x1c,0x80,0x01,
0x00,0x0c,0x00,0x00,0x00,0x00,0xfc,0x03,0x00,0x02,0x00,0x00,0x00,0x00,0x00,
0x00,0x00,0x00,0xe0,0x03,0xc0,0xff,0x7f,0x00,0x00,0x40,0x0c,0x30,0x00,0xfc,
0xff,0x7f,0x00,0x06,0x00,0x00,0x00,0x40,0xfc,0x02,0x00,0x02,0x00,0x00,0x00,
0x00,0x00,0x00,0x00,0x00,0x00,0x7c,0x00,0xe0,0xff,0xff,0x00,0x00,0x0c,0x10,
0x40,0xff,0xff,0xff,0x01,0x05,0x20,0x00,0x00,0x00,0x3e,0x78,0x00,0x02,0x00,
0x00,0x00,0x00,0x00,0x00,0x00,0x00,0x00,0xc0,0x07,0x00,0xf0,0xff,0x81,0x23,
0x00,0x10,0xf0,0xff,0x4b,0xe0,0x03,0x00,0x40,0x00,0x00,0x00,0x1f,0x78,0x00,
0x00,0x00,0x00,0x00,0x00,0x00,0x00,0x00,0x00,0x00,0x00,0x7c,0x00,0x00,0xfc,
0x1f,0x1f,0x00,0x18,0xff,0x7f,0x00,0x00,0x04,0x00,0xc0,0x00,0x00,0x00,0x07,
0x78,0x00,0x00,0x00,0x00,0x00,0x00,0x00,0x00,0x00,0x00,0x00,0x00,0x40,0x0c,
0x00,0x00,0xbf,0x0f,0x0c,0xe0,0xff,0x3f,0x81,0x00,0x00,0x00,0x80,0x00,0x00,
0x80,0x01,0x78,0x00,0x00,0x00,0x00,0x00,0x00,0x00,0x00,0x00,0x00,0x00,0x00,
0x00,0xfc,0x00,0x00,0xfe,0x07,0xfe,0xff,0xff,0x3f,0x80,0x00,0x00,0x08,0x00,
0x01,0x00,0xc0,0x00,0x00,0x00,0x00,0x00,0x00,0x00,0x00,0x00,0x00,0x00,0x00,
0x00,0x00,0x00,0x80,0x1f,0x04,0xfe,0x01,0xff,0xff,0xff,0x9f,0x80,0x40,0x00,
0x00,0x10,0x01,0x00,0xe0,0x00,0x00,0x80,0x06,0x00,0x00,0x00,0x00,0x00,0x00,
0x00,0x00,0x00,0x00,0x00,0x00,0xc8,0x07,0xfe,0x01,0x80,0xff,0xff,0x0f,0xc2,
0xff,0x03,0x10,0x00,0x00,0x00,0x60,0x00,0x00,0x00,0x00,0x00,0x00,0x00,0x00,
0x00,0x00,0x00,0x00,0x00,0x00,0x00,0x00,0x80,0x1f,0x0e,0x00,0x00,0xfe,0xff,
0x4f,0xf2,0xff,0x1f,0x90,0x08,0x00,0x00,0x00,0x00,0x00,0x00,0x00,0x00,0x00,
0x00,0x00,0x00,0x00,0x00,0x00,0x00,0x00,0x00,0x00,0x00,0x14,0x1e,0x00,0x20,
0xe6,0xff,0xcf,0xff,0xff,0xff,0xbe,0x01,0x00,0x00,0x00,0x00,0x00,0x00,0x00,
0x00,0x00,0x00,0x00,0x00,0x00,0x00,0x00,0x00,0x00,0x00,0x00,0xe0,0x24,0x02,
0x00,0x10,0xf0,0xbf,0xff,0xff,0xff,0xff,0x9f,0x07,0x00,0x00,0x00,0x00,0x00,
0x00,0x00,0x00,0x00,0x00,0x00,0x00,0x00,0x00,0x00,0x00,0x00,0x00,0x00,0xe0,
0xe1,0x20,0x00,0x16,0xf0,0x85,0xff,0xff,0xff,0xff,0xef,0x01,0x00,0x00,0x00,
0x00,0x00,0x00,0x00,0x00,0x00,0x00,0x00,0x00,0x00,0x00,0x00,0x00,0x00,0x00,
0x00,0xe0,0xc1,0x10,0x00,0x10,0x30,0x95,0xff,0xff,0xff,0xff,0xff,0x00,0x00,
0x00,0x00,0x38,0x00,0x00,0x31,0x21,0x3e,0x8e,0x90,0x20,0x8e,0x0f,0x00,0x00,
0x00,0x00,0x00,0xe0,0xb9,0x09,0x40,0x10,0x28,0x95,0xff,0xff,0xff,0xc1,0x0f,
0x00,0x00,0x00,0x00,0x3c,0x00,0x00,0x32,0x31,0x08,0x91,0x90,0x20,0x11,0x02,
0x00,0x00,0x00,0x00,0x00,0xe0,0x7f,0x05,0x0c,0x00,0x28,0xf4,0xff,0xff,0xff,
0x80,0x0f,0xe0,0x07,0x00,0x00,0x3c,0x00,0x00,0x32,0x51,0x88,0x90,0x90,0x20,
0x01,0x02,0x00,0x00,0x00,0x00,0x00,0xe0,0xff,0x02,0x0e,0x00,0xa8,0xff,0xff,
0xff,0xff,0x00,0x06,0x80,0xff,0x00,0x00,0x00,0x00,0x00,0x2a,0x49,0x88,0x80,
0x90,0x20,0x02,0x02,0x00,0x00,0x00,0x00,0x00,0xf8,0x7f,0x01,0x04,0x00,0xf8,
0xff,0xff,0xff,0xdf,0x01,0x20,0x00,0xf0,0x1f,0x00,0x00,0x00,0x00,0xaa,0x78,
0x88,0x80,0x9f,0x20,0x1c,0x02,0x00,0x00,0x00,0x00,0x00,0xfc,0x2f,0x40,0x35,
0x00,0xfc,0xff,0xff,0xff,0x1f,0x00,0x10,0x00,0x00,0xfc,0x03,0x00,0x00,0x00,
0xca,0x88,0x88,0x90,0x90,0x20,0x10,0x02,0x00,0x00,0x00,0x00,0x00,0xf8,0x4f,
0x7c,0x35,0x00,0xfc,0xff,0xff,0xff,0x0f,0x00,0x08,0x30,0x02,0x00,0x7f,0x00,
0x00,0x00,0xcc,0x88,0x08,0x91,0x90,0x20,0x11,0x02,0x00,0x00,0x00,0x00,0x00,
0xe0,0xdf,0xfe,0x3f,0x01,0xfc,0xff,0xff,0xff,0x0f,0x00,0x00,0x00,0xf2,0x1f,
0xc0,0x07,0x00,0x00,0xc4,0x84,0x08,0x8f,0x90,0x2f,0x0e,0x02,0x00,0x00,0x00,
0x00,0x00,0xc0,0x3f,0xff,0xdf,0x00,0xfc,0xff,0x8f,0xff,0x0f,0x00,0x04,0x40,
0x01,0xc0,0x1f,0x3c,0x00,0x00,0x00,0x00,0x00,0x00,0x00,0x00,0x00,0x00,0x00,
0x00,0x00,0x00,0x00,0x00,0xff,0xff,0x0f,0x00,0xfc,0x7f,0x00,0xf0,0x0f,0x00,
0x02,0x00,0x00,0x00,0x00,0x00,0x00,0x00,0x00,0x00,0x00,0x00,0x00,0x00,0x00,
0x00,0x00,0x00,0x00,0x00,0x00,0x00,0xfc,0xff,0xe3,0xfe,0xfd,0x03,0x00,0x80,
0x1f,0x00,0x00,0x00,0x00,0x00,0x00,0x00,0x00,0x00,0x00,0x00,0x00,0x00,0x00,
0x00,0x00,0x00,0x00,0x00,0x00,0x00,0x00,0x00,0xf0,0xff,0xff,0x7f,0x10,0x00,
0x00,0x00,0x3c,0xc0,0x00,0x80,0x00,0x00,0x00,0x00,0x00,0x00,0x00,0x00,0x00,
0x00,0x00,0x00,0x00,0x00,0x00,0x00,0x00,0x00,0x00,0x00,0xc0,0xff,0xff,0x0f,
0x00,0x00,0x00,0x00,0xf8,0x83,0x00,0x40,0x00,0x00,0x00,0x00,0x00,0x10,0x00,
0x00,0x00,0x00,0x00,0x00,0x00,0x00,0x00,0x00,0x00,0x00,0x00,0x00,0x00,0xff,
0x7f,0x00,0x00,0x00,0x00,0x80,0xff,0x81,0x01,0x60,0x00,0x00,0x00,0x00,0x00,
0x08,0x00,0x00,0x00,0x00,0x00,0x00,0x00,0x00,0x00,0x00,0x00,0x00,0x00,0x00,
0x00,0xf8,0x07,0x00,0x00,0x00,0x00,0xf8,0x1f,0x00,0x02,0x30,0x06,0x00,0x00,
0x00,0x00,0xc4,0xff,0xff,0xff,0xff,0xff,0xff,0xff,0xff,0x0f,0x00,0x00,0x00,
0x00,0x00,0x00,0xe0,0x01,0x00,0x00,0x00,0xc0,0x7f,0x00,0x00,0x04,0x08,0x0c,
0x00,0x40,0x00,0x00,0x02,0x00,0x00,0x00,0x00,0x00,0x00,0x00,0x00,0x00,0x00,
0x00,0x00,0x00,0x00,0x00,0x00,0x07,0x00,0x00,0x00,0xff,0x08,0x00,0x00,0x00,
0x00,0x10,0x00,0x40,0x00,0x00,0x01,0x00,0x00,0x00,0x00,0x00,0x00,0x00,0x00,
0x00,0x00,0x00,0x00,0x00,0x00,0x00,0x00,0x78,0x00,0x00,0x80,0x03,0x00,0x00,
0x00,0x00,0x00,0x20,0x00,0x00,0x00,0xc0,0x00,0x00,0x00,0x00,0x00,0x00,0x00,
0x00,0x00,0x00,0x00,0x00,0x00,0x00,0x00,0x00,0x00,0x80,0x1f,0x00,0xc0,0x01,
0x00,0x00,0x00,0x00,0x00,0x40,0x00,0x00,0x00,0x20,0x00,0x00,0x00,0x00,0x00,
0x00,0x00,0x00,0x00,0x00,0x00,0x00,0x00,0x00,0x00,0x00,0x00,0x00,0xc0,0xff,
0x7f,0x00,0x00,0x00,0x00,0x00,0x00,0x00,0x01,0x00,0x00,0x18,0x00,0x00,0x00,
0x00,0x00,0x00,0x00,0x00,0x00,0x00,0x00,0x00,0x00,0x00,0x00,0x00,0x00,0x00,
0x00,0x00,0x00,0x00,0x00,0x00,0x00,0x00,0x00,0x00,0x04,0x00,0x00,0x06,0x00,
0x00,0x00,0x00,0x00,0x00,0x00,0x00,0x00,0x00,0x00,0x00,0x00,0x00,0x00,0x00,
0x00,0x00,0x00,0x00,0x00,0x00,0x00,0x00,0x00,0x00,0x00,0x00,0x30,0x00,0xc0,
0x01,0x00,0x00,0x00,0x00,0x00,0x00,0x00,0x00,0x00,0x00,0x00,0x00,0x00,0x00,
0x00,0x00,0x00,0x00,0x00,0x00,0x00,0x00,0x00,0x00,0x00,0x00,0x00,0x00,0x80,
0x43,0x3c,0x00,0x00,0x00,0x00,0x00,0x00,0x00,0x00,0x00,0x00,0x00,0x00,0x00,
0x00,0x00,0x00,0x00,0x00,0x00,0x00,0x00,0x00,0x00,0x00,0x00,0x00,0x00,0x00,
0x00,0x00,0x40,0x00,0x00,0x00,0x00,0x00,0x00,0x00,0x00,0x00,0x00,0x00,0x00,
0x00,0x00,0x00,0x00,0x00,0x00,0x00,0x00,0x00,0x00,0x00,0x00,0x00,0x00,0x00,
0x00,0x00,0x00,0x00,0x00,0x00,0x00,0x00,0x00,0x00,0x00,0x00,0x00,0x00,0x00,
0x00,0x00,0x00,0x00,0x00,0x00,0x00,0x00,0x00,0x00,0x00,0x00,0x00,0x00,0x00,
0x00,0x00,0x00,0x00,0x00,0x00,0x00,0x00,0x00,0x00,0x00,0x00,0x00,0x00,0x00,
0x00,0x00,0x00,0x00,0x00,0x00,0x00,0x00,0x00,0x00,0x00,0x00,0x00,0x00,0x00,
0x00,0x00,0x00,0x00,0x00,0x00,0x00,0x00,0x00,0x00,0x00,0x00,0x00,0x00,0x00,
0x00,0x00,0x00,0x00,0x00,0x00,0x00,0x00,0x00,0x00,0x00,0x00,0x00,0x00,0x00,
0x00,0x00,0x00,0x00,0x00,0x00,0x00,0x00,0x00,0x00,0x00,0x00,0x00,0x00,0x00,
0x00,0x00,0x00,0x00,0x00,0x00,0x00,0x00
};
